_site/images/icons/wallet.svg

<svg height="60" viewBox="0 0 60 60" width="60" xmlns="http://www.w3.org/2000/svg"><g fill="#107674"><path d="m48 17c-1.1045695 0-2-.8954305-2-2h-2c.0068148 1.8184116 1.2393149 3.4034067 3 3.858v1.142h2v-1.142c1.9482742-.5014457 3.2190002-2.3742805 2.9650329-4.3699561-.2539674-1.9956755-1.953264-3.4905487-3.9650329-3.4880439-1.1045695 0-2-.8954305-2-2s.8954305-2 2-2 2 .8954305 2 2h2c-.0068148-1.81841162-1.2393149-3.40340667-3-3.858v-1.142h-2v1.142c-1.9482742.50144572-3.2190002 2.37428054-2.9650329 4.36995608.2539674 1.99567552 1.953264 3.49054872 3.9650329 3.48804392 1.1045695 0 1.9999999.8954305 1.9999999 2s-.8954304 2-1.9999999 2z"/><path d="m10 14h3v-2h-4c-.55228475 0-1 .4477153-1 1v4h2z"/><path d="m24 17h2v-4c0-.5522847-.4477153-1-1-1h-4v2h3z"/><path d="m32 28h2v2h-2z"/><path d="m28 28h2v2h-2z"/><path d="m24 28h2v2h-2z"/><path d="m20 28h2v2h-2z"/><path d="m16 28h2v2h-2z"/><path d="m12 28h2v2h-2z"/><path d="m59.339973 34.0608186-4.3399981-1.5799502v-9.4797008c-.0049371-.3911565-.0552741-.7804171-.1499999-1.1599634 3.9676086-2.7571763 5.8931972-7.6258848 4.8848367-12.35094909s-4.7537263-8.38362831-9.5012512-9.28105222c-4.7475248-.89742392-9.5699659 1.14156884-12.2335778 5.17252075v-4.37986178c0-.55226732-.4477151-.99996845-.9999996-.99996845h-25.9999881c-.5522845 0-.99999955.44770113-.99999955.99996845v2.99990533h-2.99999864c-.5522845 0-.99999954.44770112-.99999954.99996844v2.99990533h-.99999955c-.5522845 0-.99999954.44770112-.99999954.99996844v8.999716h-.99999955c-1.65480204.004942-2.99505643 1.3451547-2.99999863 2.9999053v37.9988009c0 .5522673.44771505.9999684.99999955.9999684h46.99997855c.2476926-.0014031.4861972-.0939543.6699997-.2599918l7.0799968-6.4297971c2.7051245-2.4672026 4.2475876-5.9585045 4.2499981-9.6196964v-8.6897258c.0022114-.421769-.2625331-.7988176-.6599997-.9399703zm-55.33997482 23.9392445h-1.99999909v-31.9989902h1.99999909zm0-33.9989271h-1.99999909v-2.9999053c0-.5522673.44771505-.9999684.99999954-.9999684h.99999955zm43.99997992-21.9993057c5.522845 0 9.9999955 4.47701122 9.9999955 9.9996844 0 5.5226732-4.4771505 9.9996845-9.9999955 9.9996845-5.5228449 0-9.9999954-4.4770113-9.9999954-9.9996845.0088096-5.51902013 4.4808036-9.99087509 9.9999954-9.9996844zm-9.9999954 16.6194755c3.2501615 4.9379023 9.6225107 6.7573023 14.9899932 4.279865 0 .029999.01.0699978.01.0999968v8.7497239l-3.9999982-1.4499543v-3.2998958c-.0049422-1.6547506-1.3451966-2.9949633-2.9999987-2.9999054h-7.9999963zm-25.9999882-16.6194755h23.9999891v21.9993057h-1.9999991v-18.99940037c0-.55226732-.447715-.99996844-.9999995-.99996844h-20.9999905zm-3.99999814 3.99987377h23.99998904v17.99943193h-1.9999991v-14.9995266c0-.55226732-.447715-.99996844-.9999995-.99996844h-20.99999044zm-1.99999909 3.99987373h21.99998993v13.9995582h-21.99998993zm1.99999909 47.9984853h-1.99999909v-31.9989902h1.99999909zm1.99999909 0v-31.9989902h35.99998355c.5522845 0 .9999996.4477012.9999996.9999685v3.2998958l-10.3399953 3.7598814c-.3974667.1411527-.6622111.5182013-.6599997.9399703v8.6897258c.0024105 3.6611919 1.5448736 7.1524938 4.2499981 9.6196964l5.1599976 4.689852zm47.99997815-14.3095484c-.0021484 3.0987082-1.3088958 6.0533173-3.5999984 8.1397431l-6.3999971 5.8198164-6.399997-5.8198164c-2.2911027-2.0864258-3.59785-5.0410349-3.5999984-8.1397431v-7.9897479l9.9999954-3.6398851 9.9999955 3.6398851z"/><path d="m43.4807475 43.1010293-1.4807475 1.4616185 4.1888191 4.1347057c.4089333.4035287 1.0718142.4035287 1.4807475 0l7.3304334-7.235735-1.4807475-1.4616185-6.5900597 6.5049258z"/></g></svg>

<?xml version="1.0" encoding="UTF-8"?>
<svg width="60px" height="60px" viewBox="0 0 60 60" version="1.1" xmlns="http://www.w3.org/2000/svg" xmlns:xlink="http://www.w3.org/1999/xlink">
    <!-- Generator: Sketch 52.6 (67491) - http://www.bohemiancoding.com/sketch -->
    <title>wallet</title>
    <desc>Created with Sketch.</desc>
    <g id="Website" stroke="none" stroke-width="1" fill="none" fill-rule="evenodd">
        <g id="20--Verification" transform="translate(-263.000000, -715.000000)" fill="#107674" fill-rule="nonzero">
            <g id="Group-37" transform="translate(121.000000, 715.000000)">
                <g id="wallet" transform="translate(142.000000, 0.000000)">
                    <path d="M48,17 C46.8954305,17 46,16.1045695 46,15 L44,15 C44.0068148,16.8184116 45.2393149,18.4034067 47,18.858 L47,20 L49,20 L49,18.858 C50.9482742,18.3565543 52.2190002,16.4837195 51.9650329,14.4880439 C51.7110655,12.4923684 50.0117689,10.9974952 48,11 C46.8954305,11 46,10.1045695 46,9 C46,7.8954305 46.8954305,7 48,7 C49.1045695,7 50,7.8954305 50,9 L52,9 C51.9931852,7.18158838 50.7606851,5.59659333 49,5.142 L49,4 L47,4 L47,5.142 C45.0517258,5.64344572 43.7809998,7.51628054 44.0349671,9.51195608 C44.2889345,11.5076316 45.9882311,13.0025048 48,13 C49.1045695,13 49.9999999,13.8954305 49.9999999,15 C49.9999999,16.1045695 49.1045695,17 48,17 Z" id="Path"></path>
                    <path d="M10,14 L13,14 L13,12 L9,12 C8.44771525,12 8,12.4477153 8,13 L8,17 L10,17 L10,14 Z" id="Path"></path>
                    <path d="M24,17 L26,17 L26,13 C26,12.4477153 25.5522847,12 25,12 L21,12 L21,14 L24,14 L24,17 Z" id="Path"></path>
                    <polygon id="Path" points="32 28 34 28 34 30 32 30"></polygon>
                    <polygon id="Path" points="28 28 30 28 30 30 28 30"></polygon>
                    <polygon id="Path" points="24 28 26 28 26 30 24 30"></polygon>
                    <polygon id="Path" points="20 28 22 28 22 30 20 30"></polygon>
                    <polygon id="Path" points="16 28 18 28 18 30 16 30"></polygon>
                    <polygon id="Path" points="12 28 14 28 14 30 12 30"></polygon>
                    <path d="M59.339973,34.0608186 L54.9999749,32.4808684 L54.9999749,23.0011676 C54.9950378,22.6100111 54.9447008,22.2207505 54.849975,21.8412042 C58.8175836,19.0840279 60.7431722,14.2153194 59.7348117,9.49025511 C58.7264512,4.76519082 54.9810854,1.1066268 50.2335605,0.209202887 C45.4860357,-0.68822103 40.6635946,1.35077173 37.9999827,5.38172364 L37.9999827,1.00186186 C37.9999827,0.449594536 37.5522676,0.00189341481 36.9999831,0.00189341481 L10.999995,0.00189341481 C10.4477105,0.00189341481 9.99999545,0.449594536 9.99999545,1.00186186 L9.99999545,4.00176719 L6.99999681,4.00176719 C6.44771231,4.00176719 5.99999727,4.44946831 5.99999727,5.00173563 L5.99999727,8.00164096 L4.99999772,8.00164096 C4.44771322,8.00164096 3.99999818,8.44934208 3.99999818,9.0016094 L3.99999818,18.0013254 L2.99999863,18.0013254 C1.34519659,18.0062674 0.00494219942,19.3464801 0,21.0012307 L0,59.0000316 C0,59.5522989 0.447715046,60 0.999999545,60 L47.9999781,60 C48.2476707,59.9985969 48.4861753,59.9060457 48.6699778,59.7400082 L55.7499746,53.3102111 C58.4550991,50.8430085 59.9975622,47.3517066 59.9999727,43.6905147 L59.9999727,35.0007889 C60.0021841,34.5790199 59.7374396,34.2019713 59.339973,34.0608186 Z M3.99999818,58.0000631 L1.99999909,58.0000631 L1.99999909,26.0010729 L3.99999818,26.0010729 L3.99999818,58.0000631 Z M3.99999818,24.001136 L1.99999909,24.001136 L1.99999909,21.0012307 C1.99999909,20.4489634 2.44771414,20.0012623 2.99999863,20.0012623 L3.99999818,20.0012623 L3.99999818,24.001136 Z M47.9999781,2.0018303 C53.5228231,2.0018303 57.9999736,6.47884152 57.9999736,12.0015147 C57.9999736,17.5241879 53.5228231,22.0011992 47.9999781,22.0011992 C42.4771332,22.0011992 37.9999827,17.5241879 37.9999827,12.0015147 C38.0087923,6.48249457 42.4807863,2.01063961 47.9999781,2.0018303 Z M37.9999827,18.6213058 C41.2501442,23.5592081 47.6224934,25.3786081 52.9899759,22.9011708 C52.9899759,22.9311698 52.9999759,22.9711686 52.9999759,23.0011676 L52.9999759,31.7508915 L48.9999777,30.3009372 L48.9999777,27.0010414 C48.9950355,25.3462908 47.6547811,24.0060781 45.999979,24.001136 L37.9999827,24.001136 L37.9999827,18.6213058 Z M11.9999945,2.0018303 L35.9999836,2.0018303 L35.9999836,24.001136 L33.9999845,24.001136 L33.9999845,5.00173563 C33.9999845,4.44946831 33.5522695,4.00176719 32.999985,4.00176719 L11.9999945,4.00176719 L11.9999945,2.0018303 Z M7.99999636,6.00170407 L31.9999854,6.00170407 L31.9999854,24.001136 L29.9999863,24.001136 L29.9999863,9.0016094 C29.9999863,8.44934208 29.5522713,8.00164096 28.9999868,8.00164096 L7.99999636,8.00164096 L7.99999636,6.00170407 Z M5.99999727,10.0015778 L27.9999872,10.0015778 L27.9999872,24.001136 L5.99999727,24.001136 L5.99999727,10.0015778 Z M7.99999636,58.0000631 L5.99999727,58.0000631 L5.99999727,26.0010729 L7.99999636,26.0010729 L7.99999636,58.0000631 Z M9.99999545,58.0000631 L9.99999545,26.0010729 L45.999979,26.0010729 C46.5522635,26.0010729 46.9999786,26.4487741 46.9999786,27.0010414 L46.9999786,30.3009372 L36.6599833,34.0608186 C36.2625166,34.2019713 35.9977722,34.5790199 35.9999836,35.0007889 L35.9999836,43.6905147 C36.0023941,47.3517066 37.5448572,50.8430085 40.2499817,53.3102111 L45.4099793,58.0000631 L9.99999545,58.0000631 Z M57.9999736,43.6905147 C57.9978252,46.7892229 56.6910778,49.743832 54.3999752,51.8302578 L47.9999781,57.6500742 L41.5999811,51.8302578 C39.3088784,49.743832 38.0021311,46.7892229 37.9999827,43.6905147 L37.9999827,35.7007668 L47.9999781,32.0608817 L57.9999736,35.7007668 L57.9999736,43.6905147 Z" id="Shape"></path>
                    <path d="M43.4807475,43.1010293 L42,44.5626478 L46.1888191,48.6973535 C46.5977524,49.1008822 47.2606333,49.1008822 47.6695666,48.6973535 L55,41.4616185 L53.5192525,40 L46.9291928,46.5049258 L43.4807475,43.1010293 Z" id="Path"></path>
                </g>
            </g>
        </g>
    </g>
</svg>
